base/src/assets/images/model/mesh/ic_unknow.svg

<?xml version="1.0" encoding="UTF-8"?>
<svg width="70px" height="70px" viewBox="0 0 70 70" version="1.1" xmlns="http://www.w3.org/2000/svg" xmlns:xlink="http://www.w3.org/1999/xlink">
    <title>icon/ic_homepage_unknow</title>
    <g id="icon/ic_homepage_unknow" stroke="none" stroke-width="1" fill="none" fill-rule="evenodd">
        <path d="M34.6102993,4 C36.7620111,4 38.5063182,5.75679159 38.5063182,7.92390384 L38.506,18.565 L52.531,21.39 L52.5319863,11.0630269 C52.5319863,8.89591467 54.2762933,7.13912308 56.4280052,7.13912308 C58.579717,7.13912308 60.3240241,8.89591467 60.3240241,11.0630269 L60.324,22.959 L63.7239496,23.6441548 L63.799995,23.6605968 L63.833,23.669 L63.7464681,23.649999 L63.855,23.675 L63.841,23.671 L63.8749719,23.6807826 L63.855,23.675 L63.9244702,23.6960483 C63.9404168,23.7016331 63.9569851,23.7074455 63.9734463,23.7135317 C64.3616711,23.8505862 64.6461994,24.119879 64.8160435,24.4449277 L64.8401344,24.4927518 L64.8566245,24.5284527 C64.9357773,24.6996441 64.9850982,24.8905199 64.9966337,25.0956731 C64.9984176,25.1218636 64.9994151,25.147478 64.9998083,25.1731088 L64.9992468,51.8716269 C64.9992468,52.4348748 64.6995867,52.9549387 64.2140259,53.2343879 L42.4108877,65.7825862 C42.3345269,65.8277783 42.2542102,65.8665553 42.1707553,65.8982563 C41.860367,66.0154382 41.5477388,66.0264922 41.2588155,65.9553413 L6.22089708,58.1124972 C5.5078671,57.952912 5.00055559,57.3159629 5.00055559,56.5803115 L5.00001293,29.8833334 C5.00201039,29.3814607 5.23556007,28.8780255 5.72751417,28.5698208 C5.75738887,28.5511234 5.78735202,28.5334272 5.8178977,28.5167372 L27.6407556,16.7425168 C27.9139687,16.5951051 28.2235205,16.5336464 28.529683,16.5640738 L28.6822979,16.5869721 L30.714,16.995 L30.7142804,7.92390384 C30.7142804,5.75679159 32.4585875,4 34.6102993,4 Z M8.117,31.854 L8.11737071,55.3199536 L40.0647258,62.470876 L40.0647258,39.0043614 L27.001,36.08 L8.117,31.854 Z M61.8824316,27.8934353 L43.181,38.656 L43.1815409,61.7221951 L61.8824316,50.9581421 L61.8824316,27.8934353 Z M21.4247103,52.555764 L25.0528779,53.5181509 L25.0528779,57.0619265 L21.4247103,56.0995397 L21.4247103,52.555764 Z M47.8567636,51.0868461 C48.7174483,50.9309735 49.4151711,51.8586888 49.4151711,53.1589561 C49.4151711,54.4592235 48.7174483,55.6396582 47.8567636,55.7955307 C46.9960788,55.9514033 46.298356,55.0236881 46.298356,53.7234207 C46.298356,52.4231534 46.9960788,51.2427187 47.8567636,51.0868461 Z M59.5448203,45.5933807 L59.5448203,48.7325038 L51.7527825,53.4411884 L51.7527825,50.3020654 L59.5448203,45.5933807 Z M22.9344176,38.2415809 C24.7687932,38.7281568 26.2927048,39.5738199 27.5061523,40.7785704 C28.7195999,41.9833209 29.3263236,43.4522249 29.3263236,45.1852824 C29.3263236,46.2480064 29.0625307,47.0731747 28.5349448,47.6607875 C28.22651,48.0204131 27.6339904,48.4273059 26.7573862,48.8814661 L25.892957,49.3265936 C25.422188,49.5695861 25.1096948,49.9158729 24.9554774,50.3654541 C24.858077,50.6502606 24.8053184,51.1185793 24.7972017,51.7704103 L21.5099357,50.8984491 C21.5586359,49.5298259 21.6885032,48.6098659 21.8995376,48.1385691 C22.110572,47.6672722 22.6543913,47.2045437 23.5309955,46.7503836 L24.4197748,46.2871907 C24.7119762,46.1439787 24.9473607,45.9652589 25.1259283,45.7510311 C25.4505965,45.3875367 25.6129306,44.9360212 25.6129306,44.3964844 C25.6129306,43.7751996 25.4323339,43.1611907 25.0711405,42.5544576 C24.7099471,41.9477245 24.0504647,41.5173316 23.0926934,41.2632787 C22.1511555,41.0135317 21.4835564,41.1511781 21.0898962,41.6762176 C20.6962359,42.2012571 20.4994058,42.8030311 20.4994058,43.4815394 L16.9808137,42.548218 C17.0782142,40.244236 17.8858265,38.807149 19.4036505,38.2369571 C20.3614218,37.8697252 21.5383442,37.8712665 22.9344176,38.2415809 Z M28.6197806,19.775663 L10.9973079,29.2824972 L41.3722297,36.0802683 L59.0523635,25.9048008 L28.6197806,19.775663 Z M56.4280052,10.2782462 C55.9976628,10.2782462 55.6488014,10.6296045 55.6488014,11.0630269 L55.648,22.018 L57.207,22.332 L57.207209,11.0630269 C57.207209,10.6296045 56.8583475,10.2782462 56.4280052,10.2782462 Z M34.6102993,7.13912308 C34.1799569,7.13912308 33.8310955,7.49048139 33.8310955,7.92390384 L33.831,17.623 L35.389,17.937 L35.3895031,7.92390384 C35.3895031,7.49048139 35.0406417,7.13912308 34.6102993,7.13912308 Z" id="形状结合" fill="#333333" fill-rule="nonzero"></path>
    </g>
</svg>

<svg xmlns="http://www.w3.org/2000/svg" width="70" height="70"><path fill="#333" fill-rule="nonzero" d="M34.61 4c2.152 0 3.896 1.757 3.896 3.924v10.641l14.025 2.825.001-10.327c0-2.167 1.744-3.924 3.896-3.924s3.896 1.757 3.896 3.924v11.896l3.4.685.076.017.033.008-.087-.019.109.025-.014-.004.034.01-.02-.006.07.021.048.018c.389.137.673.406.843.73l.024.049.017.035a1.555 1.555 0 0 1 .143.645v26.699c0 .563-.3 1.083-.786 1.362L42.411 65.783a1.525 1.525 0 0 1-1.152.173L6.22 58.111A1.567 1.567 0 0 1 5 56.58L5 29.883a1.535 1.535 0 0 1 .818-1.366L27.64 16.743a1.55 1.55 0 0 1 .889-.179l.152.023 2.032.408V7.924C30.714 5.757 32.46 4 34.61 4ZM8.117 31.854V55.32l31.948 7.15V39.005L27 36.08 8.117 31.854Zm53.765-3.96L43.181 38.655v23.066l18.701-10.764V27.893ZM21.425 52.555l3.628.962v3.544l-3.628-.962v-3.544Zm26.432-1.47c.86-.155 1.558.773 1.558 2.073 0 1.3-.698 2.48-1.558 2.637-.86.155-1.559-.772-1.559-2.073 0-1.3.698-2.48 1.559-2.636Zm11.688-5.493v3.14l-7.792 4.708v-3.139l7.792-4.709Zm-36.61-7.351c1.834.486 3.358 1.332 4.571 2.537 1.214 1.204 1.82 2.673 1.82 4.406 0 1.063-.263 1.888-.791 2.476-.308.36-.901.766-1.778 1.22l-.864.446c-.47.243-.783.589-.938 1.038-.097.285-.15.754-.158 1.405l-3.287-.872c.049-1.368.179-2.288.39-2.76.21-.47.754-.933 1.631-1.388l.889-.463c.292-.143.527-.322.706-.536.325-.363.487-.815.487-1.355 0-.62-.18-1.235-.542-1.842-.361-.606-1.02-1.037-1.978-1.29-.942-.25-1.61-.113-2.003.412a2.93 2.93 0 0 0-.59 1.806l-3.52-.934c.098-2.304.906-3.74 2.424-4.311.957-.367 2.134-.366 3.53.005Zm5.685-18.466-17.623 9.506 30.375 6.798 17.68-10.175-30.432-6.13Zm27.808-9.498c-.43 0-.78.352-.78.785v10.955l1.559.314V11.063a.782.782 0 0 0-.779-.785ZM34.61 7.14c-.43 0-.779.351-.779.785v9.699l1.558.314V7.924a.782.782 0 0 0-.779-.785Z"/></svg>
